dist/svgs/crypto-icons/icons/rads.svg

<?xml version="1.0" encoding="UTF-8" standalone="yes"?>
<svg xmlns="http://www.w3.org/2000/svg" xmlns:xlink="http://www.w3.org/1999/xlink" width="512px" height="512px" viewBox="0 0 384 384" version="1.1">
  <g id="surface1">
    <path style=" stroke:none;fill-rule:nonzero;fill:rgb(0%,0%,0%);fill-opacity:1;" d="M 297.746094 175.214844 C 346.128906 175.214844 385.351562 135.992188 385.351562 87.609375 C 385.351562 39.222656 346.128906 0 297.746094 0 C 249.363281 0 210.140625 39.222656 210.140625 87.605469 C 210.140625 154.34375 156.039062 208.445312 89.300781 208.445312 C 40.914062 208.449219 1.691406 247.671875 1.691406 296.054688 C 1.691406 344.441406 40.914062 383.660156 89.296875 383.660156 C 137.683594 383.660156 176.902344 344.441406 176.902344 296.054688 C 176.90625 229.316406 231.007812 175.214844 297.746094 175.214844 Z M 297.746094 61.195312 C 312.332031 61.195312 324.15625 73.019531 324.15625 87.605469 C 324.15625 102.191406 312.332031 114.015625 297.746094 114.015625 C 283.160156 114.015625 271.335938 102.191406 271.335938 87.605469 C 271.335938 73.019531 283.160156 61.195312 297.746094 61.195312 Z M 89.296875 322.464844 C 74.710938 322.464844 62.886719 310.640625 62.886719 296.054688 C 62.886719 281.46875 74.710938 269.644531 89.296875 269.644531 C 103.882812 269.644531 115.707031 281.46875 115.707031 296.054688 C 115.710938 310.640625 103.882812 322.464844 89.296875 322.464844 Z M 89.296875 322.464844 "/>
    <path style=" stroke:none;fill-rule:nonzero;fill:rgb(0%,0%,0%);fill-opacity:1;" d="M 297.746094 208.449219 C 249.363281 208.449219 210.140625 247.667969 210.140625 296.054688 C 210.140625 344.4375 249.363281 383.660156 297.746094 383.660156 C 346.132812 383.660156 385.351562 344.441406 385.351562 296.054688 C 385.351562 247.671875 346.132812 208.449219 297.746094 208.449219 Z M 297.746094 322.464844 C 283.160156 322.464844 271.335938 310.640625 271.335938 296.054688 C 271.335938 281.46875 283.160156 269.644531 297.746094 269.644531 C 312.332031 269.644531 324.15625 281.46875 324.15625 296.054688 C 324.15625 310.640625 312.332031 322.464844 297.746094 322.464844 Z M 89.296875 175.214844 C 137.683594 175.214844 176.902344 135.992188 176.902344 87.609375 C 176.902344 39.222656 137.683594 0 89.296875 0 C 40.914062 0 1.691406 39.222656 1.691406 87.605469 C 1.691406 135.988281 40.914062 175.214844 89.296875 175.214844 Z M 89.296875 61.195312 C 103.882812 61.195312 115.707031 73.019531 115.707031 87.605469 C 115.707031 102.191406 103.882812 114.015625 89.296875 114.015625 C 74.710938 114.015625 62.886719 102.191406 62.886719 87.605469 C 62.886719 73.019531 74.710938 61.195312 89.296875 61.195312 Z M 89.296875 61.195312 "/>
  </g>
</svg>

<svg xmlns="http://www.w3.org/2000/svg" viewBox="0 0 384 384"><path d="M297.746 175.215c48.383 0 87.606-39.223 87.606-87.606C385.352 39.223 346.129 0 297.746 0c-48.383 0-87.605 39.223-87.605 87.605 0 66.739-54.102 120.84-120.84 120.84-48.387.004-87.61 39.227-87.61 87.61 0 48.386 39.223 87.605 87.606 87.605 48.387 0 87.605-39.219 87.605-87.605.004-66.739 54.106-120.84 120.844-120.84zm0-114.02c14.586 0 26.41 11.825 26.41 26.41 0 14.586-11.824 26.41-26.41 26.41s-26.41-11.824-26.41-26.41c0-14.585 11.824-26.41 26.41-26.41zm-208.45 261.27c-14.585 0-26.41-11.824-26.41-26.41s11.825-26.41 26.41-26.41c14.587 0 26.411 11.824 26.411 26.41.004 14.586-11.824 26.41-26.41 26.41zm0 0"/><path d="M297.746 208.45c-48.383 0-87.605 39.218-87.605 87.605 0 48.382 39.222 87.605 87.605 87.605 48.387 0 87.606-39.219 87.606-87.605 0-48.383-39.22-87.606-87.606-87.606zm0 114.015c-14.586 0-26.41-11.824-26.41-26.41s11.824-26.41 26.41-26.41 26.41 11.824 26.41 26.41-11.824 26.41-26.41 26.41zm-208.45-147.25c48.388 0 87.606-39.223 87.606-87.606C176.902 39.223 137.684 0 89.297 0 40.914 0 1.69 39.223 1.69 87.605c0 48.383 39.223 87.61 87.606 87.61zm0-114.02c14.587 0 26.411 11.825 26.411 26.41 0 14.586-11.824 26.41-26.41 26.41s-26.41-11.824-26.41-26.41c0-14.585 11.824-26.41 26.41-26.41zm0 0"/></svg>
